wp-content/themes/sd-accesslasers/public/images/about/icons/about-5.svg

<?xml version="1.0" encoding="UTF-8"?>
<svg width="120px" height="120px" viewBox="0 0 120 120" version="1.1" xmlns="http://www.w3.org/2000/svg" xmlns:xlink="http://www.w3.org/1999/xlink">
    <!-- Generator: Sketch 55 (78076) - https://sketchapp.com -->
    <title>5</title>
    <desc>Created with Sketch.</desc>
    <g id="About" stroke="none" stroke-width="1" fill="none" fill-rule="evenodd">
        <g id="AL_About-Copy" transform="translate(-900.000000, -2696.000000)">
            <g id="Core-Values" transform="translate(343.000000, 1685.000000)">
                <g id="Icons" transform="translate(0.000000, 361.000000)">
                    <g id="2" transform="translate(557.000000, 0.000000)"></g>
                    <g id="5" transform="translate(557.000000, 650.000000)">
                        <g id="icon">
                            <rect id="Icon-120" x="0" y="0" width="120" height="120"></rect>
                            <g id="develop" transform="translate(10.000000, 10.000000)" fill="#596975" fill-rule="nonzero">
                                <path d="M94.140625,69.53125 L87.890625,69.53125 L87.890625,18.2027344 L88.5339844,18.2027344 C89.2443359,18.2027344 89.8986328,17.8169922 90.2427734,17.1957031 C90.5869141,16.5744141 90.5664062,15.8152344 90.1894531,15.2130859 L83.6867187,4.82890625 C83.3296875,4.25878906 82.7042969,3.9125 82.0314453,3.9125 C81.3585937,3.9125 80.7332031,4.25878906 80.3761719,4.82890625 L73.8734375,15.2130859 C73.4962891,15.8152344 73.4759766,16.5744141 73.8201172,17.1957031 C74.1642578,17.8169922 74.8185547,18.2027344 75.5289062,18.2027344 L76.171875,18.2027344 L76.171875,56.0546875 C76.171875,57.1332031 77.0462891,58.0078125 78.125,58.0078125 C79.2037109,58.0078125 80.078125,57.1332031 80.078125,56.0546875 L80.078125,16.2496094 C80.078125,15.4634766 79.6134766,14.7855469 78.94375,14.4757812 L82.03125,9.54550781 L85.11875,14.4757813 C84.4490234,14.7855469 83.984375,15.4634766 83.984375,16.2496094 L83.984375,69.53125 L69.921875,69.53125 C66.6910156,69.53125 64.0625,72.1597656 64.0625,75.390625 L64.0625,76.1171875 C63.4511719,75.9003906 62.7941406,75.78125 62.109375,75.78125 L53.3326172,75.78125 L53.3326172,54.2664062 C53.3326172,48.8816406 48.9517578,44.5007812 43.5669922,44.5007812 L41.2576172,44.5007812 L41.2576172,42.1208984 C42.0791016,42.4890625 42.9880859,42.6957031 43.9449219,42.6957031 L54.0779297,42.6957031 C57.2679687,42.6957031 59.8632812,40.1005859 59.8632812,36.9105469 C59.8632812,33.7205078 57.2679687,31.1251953 54.0779297,31.1251953 L49.0560547,31.1251953 L49.0560547,28.9275391 C49.0560547,23.0201172 45.0601563,18.0314453 39.6302734,16.5138672 C40.8681641,14.9617187 41.6107422,12.9978516 41.6107422,10.8626953 L41.6107422,9.08085937 C41.6109375,4.0734375 37.5373047,0 32.5302734,0 C27.5232422,0 23.4496094,4.0734375 23.4496094,9.08066406 L23.4496094,10.8625 C23.4496094,12.9597656 24.1662109,14.8916016 25.3648438,16.4306641 C19.78125,17.8445312 15.6371094,22.9105469 15.6371094,28.9275391 L15.6371094,39.0484375 C15.6371094,43.7611328 18.9984375,47.703125 23.4496094,48.6039063 L23.4496094,59.6679688 C23.4496094,60.7464844 24.3240234,61.6210938 25.4027344,61.6210938 C26.4814453,61.6210938 27.3558594,60.7464844 27.3558594,59.6679688 L27.3558594,48.4070312 L39.3044922,48.4070312 L43.5669922,48.4070312 C46.7978516,48.4070312 49.4263672,51.0355469 49.4263672,54.2664062 L49.4263672,75.78125 L44.7388672,75.78125 L44.7388672,56.6244141 C44.7388672,55.5458984 43.8644531,54.6712891 42.7857422,54.6712891 L33.984375,54.6712891 C32.9056641,54.6712891 32.03125,55.5458984 32.03125,56.6244141 L32.03125,81.640625 L32.03125,85.15625 L30.078125,85.15625 L27.3558594,85.15625 L27.3558594,75.5859375 C27.3558594,74.5074219 26.4814453,73.6328125 25.4027344,73.6328125 C24.3240234,73.6328125 23.4496094,74.5074219 23.4496094,75.5859375 L23.4496094,85.15625 L5.859375,85.15625 C2.62851562,85.15625 0,87.7847656 0,91.015625 L0,98.046875 C0,99.1253906 0.874414063,100 1.953125,100 L98.046875,100 C99.1255859,100 100,99.1253906 100,98.046875 L100,75.390625 C100,72.1597656 97.3714844,69.53125 94.140625,69.53125 Z M27.3558594,9.08066406 C27.3558594,6.22753906 29.6771484,3.90625 32.5302734,3.90625 C35.3833984,3.90625 37.7046875,6.22753906 37.7046875,9.08066406 L37.7046875,10.8625 C37.7046875,13.7154297 35.3833984,16.0367188 32.5302734,16.0367188 C29.6771484,16.0367188 27.3558594,13.7154297 27.3558594,10.8625 L27.3558594,9.08066406 Z M39.3044922,28.9576172 C38.2257812,28.9576172 37.3513672,29.8322266 37.3513672,30.9107422 L37.3513672,44.5007813 L27.3558594,44.5007813 L27.3558594,30.9107422 C27.3558594,29.8320312 26.4814453,28.9576172 25.4027344,28.9576172 C24.3240234,28.9576172 23.4496094,29.8322266 23.4496094,30.9107422 L23.4496094,44.5601562 C21.1771484,43.7591797 19.5433594,41.5916016 19.5433594,39.0484375 L19.5433594,28.9275391 C19.5433594,23.9736328 23.5738281,19.9431641 28.5277344,19.9431641 L36.1654297,19.9431641 C41.1195312,19.9431641 45.1498047,23.9736328 45.1498047,28.9275391 L45.1498047,33.0783203 C45.1498047,34.1568359 46.0242187,35.0314453 47.1029297,35.0314453 L54.0779297,35.0314453 C55.1140625,35.0314453 55.9570312,35.8744141 55.9570312,36.9105469 C55.9570312,37.9466797 55.1140625,38.7894531 54.0779297,38.7894531 L43.9449219,38.7894531 C42.4632812,38.7894531 41.2576172,37.5839844 41.2576172,36.1023438 L41.2576172,30.9107422 C41.2576172,29.8322266 40.3832031,28.9576172 39.3044922,28.9576172 Z M32.03125,96.09375 L3.90625,96.09375 L3.90625,91.015625 C3.90625,89.9386719 4.78242187,89.0625 5.859375,89.0625 L30.078125,89.0625 C31.1550781,89.0625 32.03125,89.9386719 32.03125,91.015625 L32.03125,96.09375 Z M35.9375,58.5775391 L40.8326172,58.5775391 L40.8326172,75.78125 L37.890625,75.78125 C37.2058594,75.78125 36.5488281,75.9003906 35.9375,76.1171875 L35.9375,58.5775391 Z M64.0625,96.09375 L35.9375,96.09375 L35.9375,81.640625 C35.9375,80.5636719 36.8136719,79.6875 37.890625,79.6875 L62.109375,79.6875 C63.1863281,79.6875 64.0625,80.5636719 64.0625,81.640625 L64.0625,96.09375 Z M96.09375,96.09375 L67.96875,96.09375 L67.96875,81.640625 L67.96875,75.390625 C67.96875,74.3136719 68.8449219,73.4375 69.921875,73.4375 L94.140625,73.4375 C95.2175781,73.4375 96.09375,74.3136719 96.09375,75.390625 L96.09375,96.09375 Z" id="Shape"></path>
                                <path d="M26.7832031,65.8828125 C26.4199219,65.5197266 25.9160156,65.3105469 25.4023438,65.3105469 C24.8886719,65.3105469 24.3867188,65.5195312 24.0214844,65.8828125 C23.6582031,66.2460938 23.4492188,66.75 23.4492188,67.2636719 C23.4492188,67.7773438 23.6582031,68.28125 24.0214844,68.6445312 C24.3847656,69.0076172 24.8886719,69.2167969 25.4023438,69.2167969 C25.9160156,69.2167969 26.4199219,69.0078125 26.7832031,68.6445312 C27.1464844,68.28125 27.3554688,67.7773438 27.3554688,67.2636719 C27.3554688,66.75 27.1464844,66.2460938 26.7832031,65.8828125 Z" id="Path"></path>
                                <path d="M79.5058594,62.0957031 C79.1425781,61.7324219 78.6386719,61.5234375 78.125,61.5234375 C77.6113281,61.5234375 77.1074219,61.7322266 76.7441406,62.0957031 C76.3808594,62.4589844 76.171875,62.9628906 76.171875,63.4765625 C76.171875,63.9902344 76.3808594,64.4941406 76.7441406,64.8572266 C77.1074219,65.2205078 77.6113281,65.4296875 78.125,65.4296875 C78.6386719,65.4296875 79.1425781,65.2207031 79.5058594,64.8572266 C79.8691406,64.4941406 80.078125,63.9902344 80.078125,63.4765625 C80.078125,62.9628906 79.8691406,62.4589844 79.5058594,62.0957031 Z" id="Path"></path>
                            </g>
                        </g>
                    </g>
                </g>
            </g>
        </g>
    </g>
</svg>

<svg width="120" height="120" viewBox="0 0 120 120" version="1.1" xmlns="http://www.w3.org/2000/svg"><g id="About" stroke="none" stroke-width="1" fill="none" fill-rule="evenodd"><g id="AL_About-Copy" transform="translate(-900 -2696)"><g id="Core-Values" transform="translate(343 1685)"><g id="Icons" transform="translate(0 361)"><g id="5" transform="translate(557 650)"><g id="icon"><path id="Icon-120" d="M0 0h120v120H0z"/><g id="develop" transform="translate(10 10)" fill="#596975" fill-rule="nonzero"><path d="M94.14 69.531h-6.25V18.203h.644a1.954 1.954 0 0 0 1.655-2.99L83.687 4.83a1.953 1.953 0 0 0-3.31 0l-6.504 10.384a1.953 1.953 0 0 0 1.656 2.99h.643v37.852a1.953 1.953 0 0 0 3.906 0V16.25c0-.787-.465-1.464-1.134-1.774l3.087-4.93 3.088 4.93c-.67.31-1.135.987-1.135 1.774v53.28H69.922a5.866 5.866 0 0 0-5.86 5.86v.726a5.831 5.831 0 0 0-1.953-.336h-8.776V54.266c0-5.384-4.381-9.765-9.766-9.765h-2.31v-2.38a6.561 6.561 0 0 0 2.688.575h10.133a5.792 5.792 0 0 0 5.785-5.785 5.792 5.792 0 0 0-5.785-5.786h-5.022v-2.197c0-5.908-3.996-10.897-9.426-12.414a9.035 9.035 0 0 0 1.98-5.651V9.08c0-5.007-4.072-9.08-9.08-9.08s-9.08 4.073-9.08 9.08v1.783a9.03 9.03 0 0 0 1.915 5.568c-5.584 1.414-9.728 6.48-9.728 12.497v10.12c0 4.713 3.361 8.655 7.813 9.556v11.064a1.953 1.953 0 0 0 3.906 0V48.407h16.211c3.23 0 5.86 2.629 5.86 5.86V75.78h-4.688V56.624a1.953 1.953 0 0 0-1.953-1.953h-8.802a1.953 1.953 0 0 0-1.953 1.953v28.532h-4.675v-9.57a1.953 1.953 0 0 0-3.906 0v9.57H5.86A5.866 5.866 0 0 0 0 91.016v7.03C0 99.127.874 100 1.953 100h96.094A1.953 1.953 0 0 0 100 98.047V75.39a5.867 5.867 0 0 0-5.86-5.86zM27.357 9.081a5.18 5.18 0 0 1 5.174-5.175 5.18 5.18 0 0 1 5.175 5.175v1.782a5.18 5.18 0 0 1-5.175 5.174 5.18 5.18 0 0 1-5.174-5.174V9.08zm11.948 19.877a1.953 1.953 0 0 0-1.953 1.953V44.5h-9.995V30.91a1.953 1.953 0 1 0-3.906 0v13.65a5.852 5.852 0 0 1-3.907-5.513v-10.12c0-4.954 4.03-8.985 8.985-8.985h7.637c4.955 0 8.985 4.03 8.985 8.985v4.15c0 1.079.874 1.953 1.953 1.953h6.975c1.036 0 1.879.843 1.879 1.88a1.881 1.881 0 0 1-1.88 1.878H43.946a2.69 2.69 0 0 1-2.687-2.687V30.91a1.953 1.953 0 0 0-1.954-1.953zm-7.273 67.136H3.906v-5.078c0-1.077.876-1.954 1.953-1.954h24.22c1.076 0 1.952.877 1.952 1.954v5.078zm3.907-37.516h4.895V75.78H37.89c-.685 0-1.342.12-1.953.336v-17.54zm28.124 37.516H35.939V81.64c0-1.077.876-1.954 1.953-1.954H62.11c1.077 0 1.953.877 1.953 1.954v14.453zm32.032 0H67.969V75.39c0-1.077.876-1.954 1.953-1.954H94.14c1.077 0 1.953.877 1.953 1.954v20.703z" id="Shape"/><path d="M26.783 65.883a1.969 1.969 0 0 0-1.38-.572c-.514 0-1.016.209-1.382.572a1.968 1.968 0 0 0-.572 1.38c0 .514.21 1.018.572 1.382.364.363.868.572 1.381.572.514 0 1.018-.21 1.381-.572.363-.364.572-.868.572-1.381 0-.514-.209-1.018-.572-1.381zm52.723-3.787a1.968 1.968 0 0 0-1.381-.573c-.514 0-1.018.21-1.38.573a1.968 1.968 0 0 0-.573 1.38c0 .514.209 1.018.572 1.381.363.364.867.573 1.381.573s1.018-.21 1.38-.573c.364-.363.573-.867.573-1.38 0-.514-.209-1.018-.572-1.381z" id="Path"/></g></g></g></g></g></g></g></svg>
